X:1
T: Lovely Molly
C:
R:Reel
Q: 232
K:Em
M:4/4
L:1/8
|:B2 AF DE FA|((3Bcd) Ad Bd ef|dB AF DE FA|((3Bcd) AB FE EA|
B2 AF DE FA|((3Bcd) Ad Bd ef|dB AF DE FA|((3Bcd) AB FE E2|
Be ed Bd dA|Be ef gf ed|Be ed Bd ef|dB AF FE EA|
Be ed Bd dA|Be ef gf ga|bg af ge fe|dB AF FE E2:|
